X: 23204
T: Leading Role
R: reel
M: 4/4
K: Gmajor
|:"G"ABBA GEDB,|"Em"A,G,G,B, DEFG|"G"ABBA GEDG|"Em"ABEE "C"BBAG|
"G"ABBA GEDB,|"Em" A,G,G,B, DEFG|"G"ABBA GEDB,|"Em"A,G,A,B, "G"DGG,G,:|
|:"G" ddGG ddBB|"C" deed BABG|"Em"ABEE BBAG|ABBA GEGD|
"G"ddGG ddBB|"C"deed BABG|"Em"ABBA GEDB,|A,G,A,B, "G"DG G,G,:|

